X:9
T:Oh Callar Spirlings (variation 8)
C:Domenico Corri
V:1
V:2 bass middle=d transpose -24
M:3/4
L:1/16
Q:1/4=84
N:bar 7 is printed |g4 a4 [^A4c4e4g4]|
K:D Minor
[V:1] &quot;^F.&quot;A2|[F4d4] &quot;^P.&quot;[F4d4] [G4^c4]         |&quot;^F.&quot;[F4d4] &quot;^P.&quot;[F4d4] 
[F4G4=B4]     |
[V:2]      z2| d^cde       f2d2   e2A2           |      d^cde       f2d2   
g2``````G2   |
%
[V:1] &quot;^F.&quot;   [E4c4] &quot;^P.&quot;[E4c4] [D4=B4]         |&quot;^F.&quot;[E4c4]      [E4c4] 
[E4G4^c4]     |
[V:2]          c=Bcd       e2c2   d2G2           |      c=Bcd       e2d2  
^c2``````A2   |
%
[V:1]         [F4d4]      [F4d4] [G4^c4]         |    [F4d4]       [F4d4]  
z2&quot;^P.&quot;[f2a2]|
[V:2]          d^cde       fefg   agfd           |     d^cde        fefg   a2   
   z2   |
%
[V:1]         [f3a3][eg]  [d4f4] f/e/f/e/f/e/d/e/|     d8                  z2   
       ||
[V:2]          g4          a4   [A4^c4e4g4]      |     zd^cd        AdFA   D2   
       ||
